X: 1
T: Polonäs, sexdregasamlingen del 2 nr 1
B: Sexdregasamlingen del 2 nr 1
S: efter Anders Larsson
O: Sexdrega, Västergötland
R: Slängpolska
Z: 2012-07-16 av Per Oldberg
M: 3/4
L: 1/16
K: D
"D"A2d2 d3c edcB|"A7"A2c2 c3B AGAF|"D"A2d2 d3c "G"edcB|"A7"ABcA "D"F8:|
"D"A,2DE F2F2F4|"G"B,2DF G2G2G4|"D"DEDC A,2C2 D2E2|"D"F2FG "A7"F3E D2C2|
"D"A,2DE F2F2F4|"G"B,2DF G2G2G4|"A7"E2GA B2c2 "D"d2cB|"A7"ABcA "D"F8:|

